packages/icons/src/SVG/user-admin.svg

<svg width="12" height="12" viewBox="0 0 12 12" fill="none" xmlns="http://www.w3.org/2000/svg">
<path fill-rule="evenodd" clip-rule="evenodd" d="M6 12C1.18752 9.81818 0.499983 4.63636 0.5 1.90909C0.640234 1.88591 0.779476 1.86372 0.918314 1.84159C2.41306 1.60333 3.86117 1.37251 6 0C8.13883 1.37251 9.58694 1.60333 11.0817 1.84159C11.2205 1.86372 11.3598 1.88591 11.5 1.90909C11.5 4.63636 10.8125 9.81818 6 12ZM7.97698 9.39744C7.43663 9.96847 6.78486 10.4769 6 10.8878C5.21514 10.4769 4.56337 9.96847 4.02302 9.39744C4.40409 9.27443 4.75059 9.11851 5.02297 8.91022C5.36387 8.64953 5.58972 8.2942 5.67264 7.86922L5.74757 7.48519L5.47548 7.20402C5.34773 7.07202 5.22203 6.90554 5.10151 6.69823C4.98026 6.48969 4.87703 6.26428 4.79255 6.02077L4.79033 6.01436L4.78799 6.00799C4.69628 5.75834 4.62506 5.50403 4.57414 5.24472C4.52398 4.98349 4.5 4.73554 4.5 4.5C4.5 4.15733 4.54947 3.91073 4.62017 3.73752C4.69901 3.54437 4.79529 3.41662 4.89727 3.32921L4.9019 3.32524L4.90646 3.32121C5.02513 3.21609 5.1616 3.14097 5.32506 3.09478L5.33014 3.09334L5.3352 3.09184C5.53574 3.0321 5.75613 3 6 3C6.24387 3 6.46427 3.0321 6.6648 3.09184L6.66986 3.09334L6.67494 3.09478C6.8384 3.14097 6.97487 3.21609 7.09354 3.32121L7.0981 3.32524L7.10273 3.32921C7.20471 3.41662 7.30099 3.54437 7.37983 3.73752C7.45053 3.91073 7.5 4.15733 7.5 4.5C7.5 4.73555 7.47602 4.98352 7.42585 5.24478C7.37493 5.50407 7.30371 5.75836 7.21201 6.00799L7.20967 6.01436L7.20745 6.02077C7.12297 6.26428 7.01974 6.48969 6.8985 6.69823C6.77797 6.90554 6.65227 7.07202 6.52453 7.20402L6.25243 7.48519L6.32736 7.86922C6.41028 8.2942 6.63613 8.64953 6.97703 8.91022C7.24941 9.11851 7.59591 9.27443 7.97698 9.39744ZM8.50355 8.77736C8.48298 8.77247 8.46291 8.76758 8.44336 8.7627C8.40234 8.74512 8.36133 8.73047 8.32031 8.71875C7.92774 8.60156 7.63184 8.4668 7.43262 8.31445C7.2334 8.16211 7.11035 7.96582 7.06348 7.72559C7.23926 7.54395 7.40039 7.32715 7.54688 7.0752C7.69336 6.82324 7.81641 6.55371 7.91602 6.2666C8.02148 5.97949 8.10352 5.68652 8.16211 5.3877C8.2207 5.08301 8.25 4.78711 8.25 4.5C8.25 4.08984 8.19141 3.74121 8.07422 3.4541C7.95703 3.16699 7.7959 2.93555 7.59082 2.75977C7.38574 2.57812 7.14844 2.44922 6.87891 2.37305C6.60352 2.29102 6.31055 2.25 6 2.25C5.68945 2.25 5.39648 2.29102 5.12109 2.37305C4.85156 2.44922 4.61426 2.57812 4.40918 2.75977C4.2041 2.93555 4.04297 3.16699 3.92578 3.4541C3.80859 3.74121 3.75 4.08984 3.75 4.5C3.75 4.78711 3.7793 5.08301 3.83789 5.3877C3.89648 5.68652 3.97852 5.97949 4.08398 6.2666C4.18359 6.55371 4.30664 6.82324 4.45312 7.0752C4.59961 7.32715 4.76074 7.54395 4.93652 7.72559C4.88965 7.96582 4.7666 8.16211 4.56738 8.31445C4.36816 8.4668 4.07227 8.60156 3.67969 8.71875C3.63867 8.73047 3.59766 8.74512 3.55664 8.7627C3.53709 8.76758 3.51702 8.77247 3.49645 8.77736C2.07286 6.90876 1.62213 4.56816 1.52309 2.75699C2.79894 2.54537 4.1794 2.24384 6 1.17375C7.8206 2.24384 9.20106 2.54537 10.4769 2.75699C10.3779 4.56815 9.92714 6.90876 8.50355 8.77736Z" fill="#4C505B"/>
</svg>

<!-- Generated by IcoMoon.io -->
<svg version="1.1" xmlns="http://www.w3.org/2000/svg" width="12" height="12" viewBox="0 0 12 12">
<title>user-admin</title>
<path d="M6 12c4.813-2.182 5.5-7.364 5.5-10.091-0.14-0.023-0.28-0.045-0.418-0.067-1.495-0.238-2.943-0.469-5.082-1.842-2.139 1.373-3.587 1.603-5.082 1.842-0.139 0.022-0.278 0.044-0.418 0.067-0 2.727 0.688 7.909 5.5 10.091zM7.977 9.397c-0.54 0.571-1.192 1.079-1.977 1.49-0.785-0.411-1.437-0.919-1.977-1.49 0.381-0.123 0.728-0.279 1-0.487 0.341-0.261 0.567-0.616 0.65-1.041l0.075-0.384-0.272-0.281c-0.128-0.132-0.253-0.298-0.374-0.506-0.121-0.209-0.224-0.434-0.309-0.677l-0.002-0.006-0.002-0.006c-0.092-0.25-0.163-0.504-0.214-0.763-0.050-0.261-0.074-0.509-0.074-0.745 0-0.343 0.049-0.589 0.12-0.762 0.079-0.193 0.175-0.321 0.277-0.408l0.005-0.004 0.005-0.004c0.119-0.105 0.255-0.18 0.419-0.226l0.005-0.001 0.005-0.002c0.201-0.060 0.421-0.092 0.665-0.092s0.464 0.032 0.665 0.092l0.005 0.002 0.005 0.001c0.163 0.046 0.3 0.121 0.419 0.226l0.005 0.004 0.005 0.004c0.102 0.087 0.198 0.215 0.277 0.408 0.071 0.173 0.12 0.42 0.12 0.762 0 0.236-0.024 0.484-0.074 0.745-0.051 0.259-0.122 0.514-0.214 0.763l-0.002 0.006-0.002 0.006c-0.084 0.244-0.188 0.469-0.309 0.677-0.121 0.207-0.246 0.374-0.374 0.506l-0.272 0.281 0.075 0.384c0.083 0.425 0.309 0.78 0.65 1.041 0.272 0.208 0.619 0.364 1 0.487zM8.504 8.777c-0.021-0.005-0.041-0.010-0.060-0.015-0.041-0.018-0.082-0.032-0.123-0.044-0.393-0.117-0.688-0.252-0.888-0.404s-0.322-0.349-0.369-0.589c0.176-0.182 0.337-0.398 0.483-0.65s0.27-0.521 0.369-0.809c0.105-0.287 0.188-0.58 0.246-0.879 0.059-0.305 0.088-0.601 0.088-0.888 0-0.41-0.059-0.759-0.176-1.046s-0.278-0.519-0.483-0.694c-0.205-0.182-0.442-0.311-0.712-0.387-0.275-0.082-0.568-0.123-0.879-0.123s-0.604 0.041-0.879 0.123c-0.27 0.076-0.507 0.205-0.712 0.387-0.205 0.176-0.366 0.407-0.483 0.694s-0.176 0.636-0.176 1.046c0 0.287 0.029 0.583 0.088 0.888 0.059 0.299 0.141 0.592 0.246 0.879 0.1 0.287 0.223 0.557 0.369 0.809s0.308 0.469 0.483 0.65c-0.047 0.24-0.17 0.437-0.369 0.589s-0.495 0.287-0.888 0.404c-0.041 0.012-0.082 0.026-0.123 0.044-0.020 0.005-0.040 0.010-0.060 0.015-1.424-1.869-1.874-4.209-1.973-6.020 1.276-0.212 2.656-0.513 4.477-1.583 1.821 1.070 3.201 1.372 4.477 1.583-0.099 1.811-0.55 4.152-1.973 6.020z"></path>
</svg>
